X: 10327
T: Dominic's Farewell To Cashel
R: jig
M: 6/8
K: Gmajor
GFG BAB|d^cd efg|GFG dBG|ABG FED|
GFG BAB|d^cd efg|agf edB|AGF ~G3:|
gfg efg|aga bge|gfg edB|BAG AFD|
gfg efg|aga bge|gfg edB|AGF ~G3:|

